src/assets/img/icons/dark/icon-linkedin.svg

<svg width="15" height="15" viewBox="0 0 15 15" fill="none" xmlns="http://www.w3.org/2000/svg">
<path d="M15 8.7102V14.2081H11.7843V9.0787C11.7843 7.7908 11.32 6.9112 10.1557 6.9112C9.2672 6.9112 8.7394 7.5034 8.5063 8.0767C8.4216 8.2817 8.3998 8.5662 8.3998 8.8536V14.2078H5.1839C5.1839 14.2078 5.227 5.5204 5.1839 4.6211H8.4V5.9797C8.3936 5.9903 8.3844 6.0008 8.3787 6.011H8.4V5.9797C8.8274 5.3278 9.5895 4.396 11.2982 4.396C13.4139 4.396 15 5.7662 15 8.7102ZM1.8197 0C0.7197 0 0 0.7158 0 1.6561C0 2.5766 0.6988 3.313 1.7775 3.313H1.7984C2.92 3.313 3.6174 2.5766 3.6174 1.6561C3.596 0.7158 2.92 0 1.8197 0ZM0.1911 14.2081H3.4059V4.6211H0.1911V14.2081Z" fill="white"/>
</svg>

<svg xmlns="http://www.w3.org/2000/svg" width="15" height="15" fill="none"><path fill="#fff" d="M15 8.71v5.5h-3.22V9.08c0-1.29-.46-2.17-1.62-2.17-.9 0-1.42.6-1.65 1.17-.09.2-.11.49-.11.77v5.36H5.18s.05-8.69 0-9.59H8.4v1.36c0 .01-.02.02-.02.03h.02v-.03a3.2 3.2 0 012.9-1.58C13.4 4.4 15 5.77 15 8.7zM1.82 0C.72 0 0 .72 0 1.66 0 2.58.7 3.3 1.78 3.3h.02c1.12 0 1.82-.73 1.82-1.65C3.6.72 2.92 0 1.82 0zM.19 14.2h3.22V4.63H.19v9.59z"/></svg>
